Numix-GalliumOS/16/actions/mail-mark-junk.svg

<svg width="16" xmlns="http://www.w3.org/2000/svg" viewBox="0 0 4.5155557 4.5155557" height="16">
<g transform="translate(0 .56444)">
<path style="fill:#268bd2" d="M 0.28222223,0.56447648 C 0,0.56447648 0,0.56444338 0,0.84666568 L 0,3.668888 c 0,0.2822222 -4.9194439e-8,0.2822222 0.28222223,0.2822222 l 3.95111117,0 c 0.2822223,0 0.2822223,0 0.2822223,-0.2822222 0,-0.9083989 0,-2.2974207 0,-2.82222232 0,-0.2822223 0,-0.2821895 -0.2822223,-0.2821895 z"/>
</g>
<g style="fill-opacity:.1" transform="translate(0 .56444)">
<path style="fill:#fff" d="M 0.12347223,0.56640108 C 0.00440972,0.57961508 0,0.63687508 0,0.84829708 L 2.2577778,2.2577768 4.5155557,0.84829708 c 0,-0.281896 0,-0.281896 -0.2822223,-0.281896 l -3.95111117,0 c -0.0705556,0 -0.1190625,-0.0044 -0.15875,0 z"/>
<path d="m 4.5155557,0.84666558 -2.2577779,1.41111122 2.2577779,1.4111111 0,-2.82222232 z"/>
</g>
<g style="fill:#dc322f;fill-opacity:0" transform="matrix(.19956 -.19956 .19956 .19956 -.94954 1.27547)">
<path d="M 0.62499842,14.032613 2.039212,15.446827 5.574746,11.911293 4.1605324,10.497079 z"/>
<path d="m 1.3321052,9.0828657 5.6568544,0 0,5.6568543 z"/>
</g>
<path style="fill:#cb4b16" d="M 1.9755556,0.84666669 C 1.4111112,3.3866668 2.5400001,3.1044445 3.668889,3.9511112 c 0.2822222,-0.5644444 0,-0.5644444 0,-0.8466667 0,0 0.2822222,-0.2822222 0.5644445,0.2822223 0,-0.2822223 0.8466667,-1.6933334 -0.5644445,-2.82222234 C 3.6601064,1.1147053 3.3866668,1.1288889 3.3866668,1.1288889 3.1044445,0.84666669 3.1044445,0.84666669 3.1044445,0.56444446 c 0,-0.25212435 0.041665,-0.60610944 0,-0.56444446 C 2.7206789,0.38376544 2.5400001,0.81968088 2.5400001,1.1288889 l 0,0.2822223 c 0,0 -0.2822222,0 -0.5644445,-0.56444451 z"/>
</svg>

<svg viewBox="0 0 4.5155557 4.5155557" width="16" height="16" xmlns="http://www.w3.org/2000/svg">
 <g transform="matrix(1 0 0 1 0 0.564)">
  <path style="fill:#268bd2" d="m 0.282 0.564 c -0.282 0 -0.282 0 -0.282 0.282 l 0 2.822 c 0 0.282 0 0.282 0.282 0.282 l 3.951 0 c 0.282 0 0.282 0 0.282 -0.282 0 -0.908 0 -2.297 0 -2.822 0 -0.282 0 -0.282 -0.282 -0.282 z"/>
 </g>
 <g style="fill-opacity:0.1" transform="matrix(1 0 0 1 0 0.564)">
  <path style="fill:#fff" d="m 0.123 0.566 c -0.119 0.013 -0.123 0.07 -0.123 0.282 l 2.258 1.409 2.258 -1.409 c 0 -0.282 0 -0.282 -0.282 -0.282 l -3.951 0 c -0.071 0 -0.119 -0.004 -0.159 0 z"/>
  <path d="m 4.516 0.847 -2.258 1.411 2.258 1.411 0 -2.822 z"/>
 </g>
 <g style="fill:#dc322f;fill-opacity:0" transform="matrix(0.19956 -0.19956 0.19956 0.19956 -0.95 1.275)">
  <path d="m 0.625 14.03 1.414 1.414 3.536 -3.536 -1.414 -1.414 z"/>
  <path d="m 1.332 9.08 5.657 0 0 5.657 z"/>
 </g>
 <path style="fill:#f27d0c" d="m 1.976 0.847 c -0.564 2.54 0.564 2.258 1.693 3.104 c 0.282 -0.564 0 -0.564 0 -0.847 0 0 0.282 -0.282 0.564 0.282 0 -0.282 0.847 -1.693 -0.564 -2.822 c -0.009 0.55 -0.282 0.564 -0.282 0.564 -0.282 -0.282 -0.282 -0.282 -0.282 -0.564 c 0 -0.252 0.042 -0.606 0 -0.564 c -0.384 0.384 -0.564 0.82 -0.564 1.129 l 0 0.282 c 0 0 -0.282 0 -0.564 -0.564 z"/>
</svg>
